X: 12
M:9/8
L:1/8
K:G
c|B3 GBG dBG|B/2c/2dB gdB efg|B2 G GBG dBG|A/2B/2cA fAB c2:|
|:c|B/2c/2dB gdB gdB|B/2c/2dB gdB efg|1B/2c/2dB gdB gdB|

